packages/match-logos/mono/svg/salesforce.svg

<svg fill="none" height="40" viewBox="0 0 173 40" width="173" xmlns="http://www.w3.org/2000/svg" xmlns:xlink="http://www.w3.org/1999/xlink"><clipPath id="a"><path d="m0 0h172.414v40h-172.414z"/></clipPath><g clip-path="url(#a)"><path d="m100.207 0c.69 0 1.31.0689655 1.793.137931.483.068966.897.206897 1.31.344828.069.068965.345.137931.207.827581l-1.034 2.75863c-.069.20689-.138.34482-.552.20689-.138 0-.276-.06896-.69-.13793-.275-.06896-.689-.13793-1.103-.13793-.5517 0-1.0345.06896-1.4483.2069-.4138.13793-.7586.34482-1.1034.68965s-.7586.82759-.9655 1.44828c-.4828 1.37931-.6897 2.89655-.6897 3.03448h4.2069c.345 0 .483.13793.414.41379l-.483 2.7586c-.069.4138-.4137.4138-.4137.4138h-4.3449l-2.8965 16.8276c-.3449 1.7241-.6897 3.2414-1.1724 4.4138-.4828 1.2414-.9656 2.1379-1.7242 2.9655-.7586.7586-1.5172 1.3793-2.4827 1.7241-.9656.138-2.069.4828-3.3104.4828-.5517 0-1.1724 0-1.931-.3448-.5517 0-.8276-.3448-1.2414-.3448-.1379-.069-.2759-.2069-.2069-.5518.069-.2758.8966-2.3448.9655-2.6896.1379-.3449.4828-.3449.4828-.3449.2069.3449.4138.3449.6896.3449h1.1035c.5517 0 1.1034 0 1.5862-.3449.5517-.2069.8965-.5517 1.2414-.9655.3448-.4827.6207-1.1034.8965-1.931.2759-.8276.5517-1.931.8276-3.2414l2.9655-16.6207h-2.8276c-.3448 0-.4827-.1379-.4138-.4138l.4828-2.75859c.069-.41379.4138-.41379.4138-.41379h3.0345l.2069-.89655c.4138-2.68966 1.3103-4.68966 2.6896-6 1.2414-1.172415 3.1035-1.86207 5.5173-1.86207zm-60.069.482759h3.5172c.2069 0 .4138.206896.4138.413793v28.344848c0 .2069-.1379.4138-.4138.4138h-3.5172c-.2069 0-.4138-.2069-.4138-.4138v-28.413814c.069-.206896.2069-.344827.4138-.344827zm-32.2069 8.000001h.48276c2.55174 0 4.96554.75862 6.75864 1.86204.1379.069.3448.2759.2069.5518-.069.2068-.8966 2.3448-.9655 2.5517-.138.4138-.6207.1379-.6207.1379-1.5173-.8965-3.93106-1.5172-5.93106-1.5172-1.86207 0-3.03449.9655-3.03449 2.2758v.069c0 1.5172 2 2.2069 4.34483 2.9655l.41379.1379c3.10343.9656 6.34483 2.3449 6.34483 6.069v.069c0 4-2.8965 6.5517-7.58621 6.5517-2.34482 0-4.48275-.3448-6.82758-1.5862-.4138-.2759-.896554-.4828-1.310347-.7586-.068966-.069-.20689697-.138-.068966-.5518l.896553-2.5517c.13793-.4138.48276-.2758.62069-.2069.27586.138.48276.2759.75862.4828 2.75862 1.7241 5.24138 1.7241 6.06897 1.7241 2.06897 0 3.31037-1.1034 3.31037-2.5517v-.069c0-1.5862-1.93106-2.2069-4.20693-2.8965l-.48275-.138c-3.10345-.8965-6.413799-2.2069-6.413799-6.0689v-.069c-.068965-3.8621 2.896549-6.48274 7.241379-6.48274zm68.7586 0h.4828c2.5517 0 4.9655.75862 6.7586 1.86204.1379.069.3448.2759.2069.5518-.069.2068-.8965 2.3448-.9655 2.5517-.1379.4138-.6207.1379-.6207.1379-1.5172-.8965-3.931-1.5172-5.931-1.5172-1.8621 0-3.0345.9655-3.0345 2.2758v.069c0 1.5172 2 2.2069 4.3448 2.9655l.4138.1379c3.1034.9656 6.3448 2.3449 6.3448 6.069v.069c0 4-2.8965 6.5517-7.5862 6.5517-2.3448 0-4.4827-.3448-6.8276-1.5862-.4138-.2759-.8965-.4828-1.3103-.7586-.069-.069-.2069-.138-.069-.5518l.8966-2.5517c.1379-.4138.5517-.2758.6207-.2069.2758.138.4827.2759.7586.4828 2.7586 1.7241 5.2414 1.7241 6.069 1.7241 2.0689 0 3.3103-1.1034 3.3103-2.5517v-.069c0-1.5862-2-2.2069-4.2069-2.8965l-.4828-.138c-3.1034-.8965-6.4138-2.2069-6.4138-6.0689v-.069c-.0689-3.8621 2.8966-6.48274 7.2414-6.48274zm-49.4483.06896c2.6897 0 4.6897.62069 6.069 1.86208 1.3793 1.2414 2.1379 3.2414 2.1379 5.8621v12.1379s.069.3448-.2758.4138c0 0-.4828.1379-.8966.2069-.4827.1379-2.0689.4138-3.3793.6896-1.3103.2069-2.6896.3449-4 .3449-1.3103 0-2.4827-.138-3.5172-.3449-1.0345-.2758-2-.6207-2.6897-1.1724-.7586-.5517-1.3103-1.2414-1.7241-2.0689-.4138-.8276-.6207-1.8621-.6207-3.0345s.2069-2.2069.6897-3.1035c.4827-.8965 1.1034-1.5862 1.931-2.2069s1.7241-1.0345 2.7586-1.3103c1.0345-.2759 2.1379-.4138 3.3104-.4138.8275 0 1.5172 0 2.0689.069 0 0 1.0345.0689 2.2069.2758v-.5517c0-1.7931-.3448-2.6207-1.1034-3.1724-.7587-.5517-1.8621-.8276-3.3104-.8276 0 0-3.2414-.069-5.7931 1.3103-.1379.069-.2069.138-.2069.138s-.2758.0689-.4138-.2069l-.9655-2.5517c-.2069-.3449.069-.5518.069-.5518 1.1724-.89652 4.0689-1.51721 4.0689-1.51721.9656-.13794 2.6207-.27587 3.5862-.27587zm119.5866 0c1.103 0 2.069.06897 2.965.2069.897.13793 2.138.48276 2.621.68965.069 0 .345.13794.276.48276-.345 1.03447-.621 1.72417-.966 2.68967-.138.4138-.483.2759-.483.2759-1.31-.4138-2.551-.6207-4.137-.6207-1.931 0-3.38.6896-4.345 1.931-.966 1.2414-1.518 2.9655-1.518 5.1724 0 2.4138.621 4.2069 1.656 5.3793 1.103 1.1035 2.62 1.6552 4.482 1.6552.759 0 1.518-.069 2.138-.1379.621-.069 1.242-.2759 1.793-.4828 0 0 .345-.1379.483.2069l.966 2.6897c.138.3448-.138.4827-.138.4827-1.517.6207-3.586 1.0345-5.517 1.0345-3.38 0-6-.9655-7.725-2.8966-1.724-1.931-2.62-4.5517-2.62-7.7931 0-1.5172.207-2.9655.62-4.2069.414-1.3103 1.104-2.4827 1.931-3.4482.828-.9655 1.931-1.7242 3.173-2.27589 1.241-.75862 2.689-1.03449 4.345-1.03449zm-89.2417 0c1.4483 0 2.7586.27587 3.7931.75862.8276.34483 1.6552.96556 2.5517 1.93106.5517.6207 1.3793 1.862 1.7241 3.1034.8276 3.0345.4138 5.5862.4138 5.7242-.0689.3448-.4138.3448-.4138.3448h-13.3103c.069 2 .5517 3.4483 1.5172 4.4138.9656.9655 2.4828 1.5172 4.5518 1.5862 3.1724 0 4.4827-.6207 5.4482-.9655 0 0 .3449-.138.4828.2069l.8965 2.4138c.2069.4138.0001.5517-.1379.6207-.8276.4827-2.8276 1.3103-6.6896 1.3103-1.8621 0-3.5173-.2759-4.8276-.7586-1.3793-.5517-2.4828-1.3104-3.3793-2.2069-.8966-.9655-1.5173-2.069-1.9311-3.3793-.4138-1.3104-.6207-2.6897-.6207-4.2069 0-1.5173.2069-2.9655.5518-4.2069.4138-1.3104.9655-2.4828 1.7931-3.4483s1.862-1.7931 3.0345-2.34483c1.4482-.62068 2.9655-.89655 4.5517-.89655zm53.1037 0c1.586 0 3.034.27587 4.207.82759 1.172.55172 2.207 1.31039 3.034 2.27589.828.9655 1.379 2.0689 1.793 3.3793.414 1.3103.552 2.7586.552 4.2069s-.207 2.8965-.552 4.2069c-.414 1.3103-.965 2.4827-1.793 3.3793-.827.9655-1.793 1.7241-3.034 2.2758-1.242.5518-2.621.8276-4.207.8276s-3.035-.2758-4.207-.8276c-1.173-.5517-2.207-1.3103-3.035-2.2758-.827-.9655-1.379-2.1379-1.793-3.3793-.414-1.3104-.551-2.6897-.551-4.2069 0-1.5173.206-2.8966.551-4.2069.414-1.3104.966-2.4828 1.793-3.3793.828-.9655 1.793-1.72417 3.035-2.27589 1.172-.55172 2.552-.82759 4.207-.82759zm53.172 0c1.448 0 2.759.27587 3.793.75862.828.34483 1.655.96556 2.552 1.93106.552.6207 1.379 1.862 1.724 3.1034.828 3.0345.414 5.5862.414 5.7242 0 .3448-.414.3448-.414.3448h-13.31c.069 2 .552 3.4483 1.586 4.4138.966.9655 2.483 1.5172 4.552 1.5862 3.172 0 4.482-.6207 5.448-.9655 0 0 .414-.138.483.2069l.896 2.4138c.207.4138 0 .5517-.138.6207-.827.4827-2.827 1.3103-6.689 1.3103-1.862 0-3.518-.2759-4.828-.7586-1.379-.5517-2.483-1.3104-3.379-2.2069-.897-.9655-1.517-2.069-1.931-3.3793-.414-1.3104-.621-2.6897-.621-4.2069 0-1.5173.207-2.9655.552-4.2069s.965-2.4828 1.793-3.4483 1.862-1.7931 3.034-2.34483c1.311-.62068 2.828-.89655 4.483-.89655zm-30.827.2069c.206 0 .413 0 .62.06897.897.06896 2 .27586 2.207.34482.069.06897.276.2069.207.48276-.138.34483-.759 2.20693-1.034 2.82763-.069.2069-.207.4138-.483.3448 0 0-.759-.2069-1.448-.2069-.483 0-1.173.069-1.794.2759-.62.2068-1.172.5517-1.655.9655-.483.4827-.896 1.1724-1.172 2-.345.8276-.414 2.1379-.414 3.4482v9.9311c0 .2069-.207.4138-.414.4138h-3.517c-.207 0-.414-.2069-.414-.4138v-19.86209c0-.2069.138-.41379.414-.41379h3.379c.207 0 .414.20689.414.41379v1.65519c.483-.6897 1.448-1.31036 2.276-1.65519.69-.34483 1.517-.62069 2.828-.62069zm-75.7246 3.31038c-1.7241 0-2.9655.6896-3.7931 1.931-.5517.8276-.8965 1.8621-1.1034 3.1724h9.4482c-.0689-1.2414-.3448-2.3448-.8965-3.1724-.7586-1.2414-1.931-1.931-3.6552-1.931zm106.2756 0c-1.724 0-2.965.6896-3.793 1.931-.552.8276-.896 1.8621-1.103 3.1724h9.448c-.069-1.2414-.345-2.3448-.897-3.1724-.758-1.2414-1.931-1.931-3.655-1.931zm-52.896.0689c-1.793 0-3.035.6207-3.793 1.8621-.828 1.2414-1.242 3.0345-1.242 5.3103 0 2.2759.414 4.069 1.242 5.3104.827 1.2414 2.069 1.8621 3.793 1.8621s2.965-.6207 3.793-1.8621c.827-1.3104 1.241-3.1035 1.241-5.3104s-.414-4.0689-1.241-5.3103c-.828-1.2414-2.069-1.8621-3.793-1.8621zm-83.1037 7.5862c-2.6897 0-3.8621.9656-3.8621.9656-.8276.5517-1.1724 1.3793-1.1724 2.5517 0 .7586.1379 1.3103.4138 1.7241.1379.2759.2069.3448.7586.7586 0 0 1.1724.9656 3.8621.7587 1.931-.138 3.5862-.4828 3.5862-.4828v-6.069c.0689.138-1.6552-.2069-3.5862-.2069z" fill="#1f304c"/></g></svg>

<svg width="173" height="40" viewBox="0 0 173 40" fill="none" xmlns="http://www.w3.org/2000/svg">
<g clip-path="url(#clip0)">
<path d="M100.207 0C100.897 0 101.517 0.0689655 102 0.137931C102.483 0.206897 102.897 0.344828 103.31 0.482759C103.379 0.551724 103.655 0.62069 103.517 1.31034L102.483 4.06897C102.414 4.27586 102.345 4.41379 101.931 4.27586C101.793 4.27586 101.655 4.2069 101.241 4.13793C100.966 4.06897 100.552 4 100.138 4C99.5863 4 99.1035 4.06896 98.6897 4.2069C98.2759 4.34483 97.9311 4.55172 97.5863 4.89655C97.2415 5.24138 96.8277 5.72414 96.6208 6.34483C96.138 7.72414 95.9311 9.24138 95.9311 9.37931H100.138C100.483 9.37931 100.621 9.51724 100.552 9.7931L100.069 12.5517C100 12.9655 99.6553 12.9655 99.6553 12.9655H95.3104L92.4139 29.7931C92.069 31.5172 91.7242 33.0345 91.2415 34.2069C90.7587 35.4483 90.2759 36.3448 89.5173 37.1724C88.7587 37.931 88.0001 38.5517 87.0346 38.8965C86.069 39.0345 84.9656 39.3793 83.7242 39.3793C83.1725 39.3793 82.5518 39.3793 81.7932 39.0345C81.2415 39.0345 80.9656 38.6897 80.5518 38.6897C80.4139 38.6207 80.2759 38.4828 80.3449 38.1379C80.4139 37.8621 81.2415 35.7931 81.3104 35.4483C81.4483 35.1034 81.7932 35.1034 81.7932 35.1034C82.0001 35.4483 82.207 35.4483 82.4828 35.4483H83.5863C84.138 35.4483 84.6897 35.4483 85.1725 35.1034C85.7242 34.8965 86.069 34.5517 86.4139 34.1379C86.7587 33.6552 87.0346 33.0345 87.3104 32.2069C87.5863 31.3793 87.8621 30.2759 88.138 28.9655L91.1035 12.3448H88.2759C87.9311 12.3448 87.7932 12.2069 87.8621 11.931L88.3449 9.17241C88.4139 8.75862 88.7587 8.75862 88.7587 8.75862H91.7932L92.0001 7.86207C92.4139 5.17241 93.3104 3.17241 94.6897 1.86207C95.9311 0.689655 97.7932 0 100.207 0V0ZM40.138 0.482759H43.6552C43.8621 0.482759 44.069 0.689655 44.069 0.896552V29.2414C44.069 29.4483 43.9311 29.6552 43.6552 29.6552H40.138C39.9311 29.6552 39.7242 29.4483 39.7242 29.2414V0.827586C39.7932 0.62069 39.9311 0.482759 40.138 0.482759ZM7.9311 8.48276H8.41386C10.9656 8.48276 13.3794 9.24138 15.1725 10.3448C15.3104 10.4138 15.5173 10.6207 15.3794 10.8966C15.3104 11.1034 14.4828 13.2414 14.4139 13.4483C14.2759 13.8621 13.7932 13.5862 13.7932 13.5862C12.2759 12.6897 9.86214 12.069 7.86214 12.069C6.00007 12.069 4.82765 13.0345 4.82765 14.3448V14.4138C4.82765 15.931 6.82765 16.6207 9.17248 17.3793L9.58627 17.5172C12.6897 18.4828 15.9311 19.8621 15.9311 23.5862V23.6552C15.9311 27.6552 13.0346 30.2069 8.34489 30.2069C6.00007 30.2069 3.86214 29.8621 1.51731 28.6207C1.10351 28.3448 0.620756 28.1379 0.206963 27.8621C0.137997 27.7931 6.60345e-05 27.7241 0.137997 27.3103L1.03455 24.7586C1.17248 24.3448 1.51731 24.4828 1.65524 24.5517C1.9311 24.6897 2.138 24.8276 2.41386 25.0345C5.17248 26.7586 7.65524 26.7586 8.48283 26.7586C10.5518 26.7586 11.7932 25.6552 11.7932 24.2069V24.1379C11.7932 22.5517 9.86214 21.931 7.58627 21.2414L7.10352 21.1034C4.00007 20.2069 0.689721 18.8965 0.689721 15.0345V14.9655C0.620756 11.1034 3.58627 8.48276 7.9311 8.48276ZM76.6897 8.48276H77.1725C79.7242 8.48276 82.138 9.24138 83.9311 10.3448C84.069 10.4138 84.2759 10.6207 84.138 10.8966C84.069 11.1034 83.2415 13.2414 83.1725 13.4483C83.0346 13.8621 82.5518 13.5862 82.5518 13.5862C81.0346 12.6897 78.6208 12.069 76.6208 12.069C74.7587 12.069 73.5863 13.0345 73.5863 14.3448V14.4138C73.5863 15.931 75.5863 16.6207 77.9311 17.3793L78.3449 17.5172C81.4483 18.4828 84.6897 19.8621 84.6897 23.5862V23.6552C84.6897 27.6552 81.7932 30.2069 77.1035 30.2069C74.7587 30.2069 72.6208 29.8621 70.2759 28.6207C69.8621 28.3448 69.3794 28.1379 68.9656 27.8621C68.8966 27.7931 68.7587 27.7241 68.8966 27.3103L69.7932 24.7586C69.9311 24.3448 70.3449 24.4828 70.4139 24.5517C70.6897 24.6897 70.8966 24.8276 71.1725 25.0345C73.9311 26.7586 76.4139 26.7586 77.2415 26.7586C79.3104 26.7586 80.5518 25.6552 80.5518 24.2069V24.1379C80.5518 22.5517 78.5518 21.931 76.3449 21.2414L75.8621 21.1034C72.7587 20.2069 69.4483 18.8965 69.4483 15.0345V14.9655C69.3794 11.1034 72.3449 8.48276 76.6897 8.48276ZM27.2414 8.55172C29.9311 8.55172 31.9311 9.17241 33.3104 10.4138C34.6897 11.6552 35.4483 13.6552 35.4483 16.2759V28.4138C35.4483 28.4138 35.5173 28.7586 35.1725 28.8276C35.1725 28.8276 34.6897 28.9655 34.2759 29.0345C33.7932 29.1724 32.207 29.4483 30.8966 29.7241C29.5863 29.931 28.207 30.069 26.8966 30.069C25.5863 30.069 24.4139 29.931 23.3794 29.7241C22.3449 29.4483 21.3794 29.1034 20.6897 28.5517C19.9311 28 19.3794 27.3103 18.9656 26.4828C18.5518 25.6552 18.3449 24.6207 18.3449 23.4483C18.3449 22.2759 18.5518 21.2414 19.0346 20.3448C19.5173 19.4483 20.138 18.7586 20.9656 18.1379C21.7932 17.5172 22.6897 17.1034 23.7242 16.8276C24.7587 16.5517 25.8621 16.4138 27.0346 16.4138C27.8621 16.4138 28.5518 16.4138 29.1035 16.4828C29.1035 16.4828 30.138 16.5517 31.3104 16.7586V16.2069C31.3104 14.4138 30.9656 13.5862 30.207 13.0345C29.4483 12.4828 28.3449 12.2069 26.8966 12.2069C26.8966 12.2069 23.6552 12.1379 21.1035 13.5172C20.9656 13.5862 20.8966 13.6552 20.8966 13.6552C20.8966 13.6552 20.6208 13.7241 20.4828 13.4483L19.5173 10.8966C19.3104 10.5517 19.5863 10.3448 19.5863 10.3448C20.7587 9.44828 23.6552 8.82759 23.6552 8.82759C24.6208 8.68965 26.2759 8.55172 27.2414 8.55172ZM146.828 8.55172C147.931 8.55172 148.897 8.62069 149.793 8.75862C150.69 8.89655 151.931 9.24138 152.414 9.44827C152.483 9.44827 152.759 9.58621 152.69 9.93103C152.345 10.9655 152.069 11.6552 151.724 12.6207C151.586 13.0345 151.241 12.8966 151.241 12.8966C149.931 12.4828 148.69 12.2759 147.104 12.2759C145.173 12.2759 143.724 12.9655 142.759 14.2069C141.793 15.4483 141.241 17.1724 141.241 19.3793C141.241 21.7931 141.862 23.5862 142.897 24.7586C144 25.8621 145.517 26.4138 147.379 26.4138C148.138 26.4138 148.897 26.3448 149.517 26.2759C150.138 26.2069 150.759 26 151.31 25.7931C151.31 25.7931 151.655 25.6552 151.793 26L152.759 28.6897C152.897 29.0345 152.621 29.1724 152.621 29.1724C151.104 29.7931 149.035 30.2069 147.104 30.2069C143.724 30.2069 141.104 29.2414 139.379 27.3103C137.655 25.3793 136.759 22.7586 136.759 19.5172C136.759 18 136.966 16.5517 137.379 15.3103C137.793 14 138.483 12.8276 139.31 11.8621C140.138 10.8966 141.241 10.1379 142.483 9.58621C143.724 8.82759 145.172 8.55172 146.828 8.55172ZM57.5863 8.55172C59.0346 8.55172 60.3449 8.82759 61.3794 9.31034C62.207 9.65517 63.0346 10.2759 63.9311 11.2414C64.4828 11.8621 65.3104 13.1034 65.6552 14.3448C66.4828 17.3793 66.069 19.931 66.069 20.069C66.0001 20.4138 65.6552 20.4138 65.6552 20.4138H52.3449C52.4139 22.4138 52.8966 23.8621 53.8621 24.8276C54.8277 25.7931 56.3449 26.3448 58.4139 26.4138C61.5863 26.4138 62.8966 25.7931 63.8621 25.4483C63.8621 25.4483 64.207 25.3103 64.3449 25.6552L65.2414 28.069C65.4483 28.4828 65.2415 28.6207 65.1035 28.6897C64.2759 29.1724 62.2759 30 58.4139 30C56.5518 30 54.8966 29.7241 53.5863 29.2414C52.207 28.6897 51.1035 27.931 50.207 27.0345C49.3104 26.069 48.6897 24.9655 48.2759 23.6552C47.8621 22.3448 47.6552 20.9655 47.6552 19.4483C47.6552 17.931 47.8621 16.4828 48.207 15.2414C48.6208 13.931 49.1725 12.7586 50.0001 11.7931C50.8277 10.8276 51.8621 10 53.0346 9.44827C54.4828 8.82759 56.0001 8.55172 57.5863 8.55172ZM110.69 8.55172C112.276 8.55172 113.724 8.82759 114.897 9.37931C116.069 9.93103 117.104 10.6897 117.931 11.6552C118.759 12.6207 119.31 13.7241 119.724 15.0345C120.138 16.3448 120.276 17.7931 120.276 19.2414C120.276 20.6897 120.069 22.1379 119.724 23.4483C119.31 24.7586 118.759 25.931 117.931 26.8276C117.104 27.7931 116.138 28.5517 114.897 29.1034C113.655 29.6552 112.276 29.931 110.69 29.931C109.104 29.931 107.655 29.6552 106.483 29.1034C105.31 28.5517 104.276 27.7931 103.448 26.8276C102.621 25.8621 102.069 24.6897 101.655 23.4483C101.241 22.1379 101.104 20.7586 101.104 19.2414C101.104 17.7241 101.31 16.3448 101.655 15.0345C102.069 13.7241 102.621 12.5517 103.448 11.6552C104.276 10.6897 105.241 9.93103 106.483 9.37931C107.655 8.82759 109.035 8.55172 110.69 8.55172ZM163.862 8.55172C165.31 8.55172 166.621 8.82759 167.655 9.31034C168.483 9.65517 169.31 10.2759 170.207 11.2414C170.759 11.8621 171.586 13.1034 171.931 14.3448C172.759 17.3793 172.345 19.931 172.345 20.069C172.345 20.4138 171.931 20.4138 171.931 20.4138H158.621C158.69 22.4138 159.173 23.8621 160.207 24.8276C161.173 25.7931 162.69 26.3448 164.759 26.4138C167.931 26.4138 169.241 25.7931 170.207 25.4483C170.207 25.4483 170.621 25.3103 170.69 25.6552L171.586 28.069C171.793 28.4828 171.586 28.6207 171.448 28.6897C170.621 29.1724 168.621 30 164.759 30C162.897 30 161.241 29.7241 159.931 29.2414C158.552 28.6897 157.448 27.931 156.552 27.0345C155.655 26.069 155.035 24.9655 154.621 23.6552C154.207 22.3448 154 20.9655 154 19.4483C154 17.931 154.207 16.4828 154.552 15.2414C154.897 14 155.517 12.7586 156.345 11.7931C157.173 10.8276 158.207 10 159.379 9.44827C160.69 8.82759 162.207 8.55172 163.862 8.55172ZM133.035 8.75862C133.241 8.75862 133.448 8.75862 133.655 8.82759C134.552 8.89655 135.655 9.10345 135.862 9.17241C135.931 9.24138 136.138 9.37931 136.069 9.65517C135.931 10 135.31 11.8621 135.035 12.4828C134.966 12.6897 134.828 12.8966 134.552 12.8276C134.552 12.8276 133.793 12.6207 133.104 12.6207C132.621 12.6207 131.931 12.6897 131.31 12.8966C130.69 13.1034 130.138 13.4483 129.655 13.8621C129.172 14.3448 128.759 15.0345 128.483 15.8621C128.138 16.6897 128.069 18 128.069 19.3103V29.2414C128.069 29.4483 127.862 29.6552 127.655 29.6552H124.138C123.931 29.6552 123.724 29.4483 123.724 29.2414V9.37931C123.724 9.17241 123.862 8.96552 124.138 8.96552H127.517C127.724 8.96552 127.931 9.17241 127.931 9.37931V11.0345C128.414 10.3448 129.379 9.72414 130.207 9.37931C130.897 9.03448 131.724 8.75862 133.035 8.75862ZM57.3104 12.069C55.5863 12.069 54.3449 12.7586 53.5173 14C52.9656 14.8276 52.6208 15.8621 52.4139 17.1724H61.8621C61.7932 15.931 61.5173 14.8276 60.9656 14C60.207 12.7586 59.0346 12.069 57.3104 12.069ZM163.586 12.069C161.862 12.069 160.621 12.7586 159.793 14C159.241 14.8276 158.897 15.8621 158.69 17.1724H168.138C168.069 15.931 167.793 14.8276 167.241 14C166.483 12.7586 165.31 12.069 163.586 12.069ZM110.69 12.1379C108.897 12.1379 107.655 12.7586 106.897 14C106.069 15.2414 105.655 17.0345 105.655 19.3103C105.655 21.5862 106.069 23.3793 106.897 24.6207C107.724 25.8621 108.966 26.4828 110.69 26.4828C112.414 26.4828 113.655 25.8621 114.483 24.6207C115.31 23.3103 115.724 21.5172 115.724 19.3103C115.724 17.1034 115.31 15.2414 114.483 14C113.655 12.7586 112.414 12.1379 110.69 12.1379ZM27.5863 19.7241C24.8966 19.7241 23.7242 20.6897 23.7242 20.6897C22.8966 21.2414 22.5518 22.069 22.5518 23.2414C22.5518 24 22.6897 24.5517 22.9656 24.9655C23.1035 25.2414 23.1725 25.3103 23.7242 25.7241C23.7242 25.7241 24.8966 26.6897 27.5863 26.4828C29.5173 26.3448 31.1725 26 31.1725 26V19.931C31.2414 20.069 29.5173 19.7241 27.5863 19.7241Z" fill="#1F304C"/>
</g>
<defs>
<clipPath id="clip0">
<rect width="172.414" height="40" fill="white"/>
</clipPath>
</defs>
</svg>
